Numix/24/emotes/face-quiet.svg

<?xml version="1.0" encoding="UTF-8" standalone="no"?>
<svg
   xmlns:dc="http://purl.org/dc/elements/1.1/"
   xmlns:cc="http://creativecommons.org/ns#"
   xmlns:rdf="http://www.w3.org/1999/02/22-rdf-syntax-ns#"
   xmlns:svg="http://www.w3.org/2000/svg"
   xmlns="http://www.w3.org/2000/svg"
   xmlns:sodipodi="http://sodipodi.sourceforge.net/DTD/sodipodi-0.dtd"
   xmlns:inkscape="http://www.inkscape.org/namespaces/inkscape"
   width="24px"
   height="24px"
   viewBox="0 0 18 18"
   version="1.1"
   id="svg765"
   inkscape:version="0.91 r"
   sodipodi:docname="face-quiet.svg">
  <metadata
     id="metadata782">
    <rdf:RDF>
      <cc:Work
         rdf:about="">
        <dc:format>image/svg+xml</dc:format>
        <dc:type
           rdf:resource="http://purl.org/dc/dcmitype/StillImage" />
      </cc:Work>
    </rdf:RDF>
  </metadata>
  <defs
     id="defs780" />
  <sodipodi:namedview
     pagecolor="#ffffff"
     bordercolor="#666666"
     borderopacity="1"
     objecttolerance="10"
     gridtolerance="10"
     guidetolerance="10"
     inkscape:pageopacity="0"
     inkscape:pageshadow="2"
     inkscape:window-width="640"
     inkscape:window-height="480"
     id="namedview778" />
  <g
     id="surface1">
    <path
       style=" stroke:none;fill-rule:nonzero;fill:rgb(100%,85.490196%,36.862745%);fill-opacity:1;"
       d="M 15.75 9 C 15.75 12.210938 12.726562 14.8125 9 14.8125 C 5.273438 14.8125 2.25 12.210938 2.25 9 C 2.25 5.789062 5.273438 3.1875 9 3.1875 C 12.726562 3.1875 15.75 5.789062 15.75 9 Z M 15.75 9 "
       id="path768" />
    <path
       style=" stroke:none;fill-rule:nonzero;fill:rgb(39.607843%,39.607843%,39.607843%);fill-opacity:1;"
       d="M 7.6875 7.6875 C 7.6875 8.207031 7.269531 8.625 6.75 8.625 C 6.230469 8.625 5.8125 8.207031 5.8125 7.6875 C 5.8125 7.167969 6.230469 6.75 6.75 6.75 C 7.269531 6.75 7.6875 7.167969 7.6875 7.6875 Z M 7.6875 7.6875 "
       id="path770" />
    <path
       style=" stroke:none;fill-rule:nonzero;fill:rgb(39.607843%,39.607843%,39.607843%);fill-opacity:1;"
       d="M 12.1875 7.6875 C 12.1875 8.207031 11.769531 8.625 11.25 8.625 C 10.730469 8.625 10.3125 8.207031 10.3125 7.6875 C 10.3125 7.167969 10.730469 6.75 11.25 6.75 C 11.769531 6.75 12.1875 7.167969 12.1875 7.6875 Z M 12.1875 7.6875 "
       id="path772" />
    <path
       style=" stroke:none;fill-rule:nonzero;fill:rgb(39.607843%,39.607843%,39.607843%);fill-opacity:1;"
       d="M 8.070312 9.417969 L 10.457031 11.804688 C 10.53125 11.875 10.53125 11.996094 10.457031 12.066406 L 10.191406 12.332031 C 10.121094 12.40625 10 12.40625 9.929688 12.332031 L 7.542969 9.945312 C 7.46875 9.875 7.46875 9.753906 7.542969 9.683594 L 7.808594 9.417969 C 7.878906 9.34375 8 9.34375 8.070312 9.417969 Z M 8.070312 9.417969 "
       id="path774" />
    <path
       style=" stroke:none;fill-rule:nonzero;fill:rgb(39.607843%,39.607843%,39.607843%);fill-opacity:1;"
       d="M 10.191406 9.417969 L 10.457031 9.683594 C 10.53125 9.753906 10.53125 9.875 10.457031 9.945312 L 8.070312 12.332031 C 8 12.40625 7.878906 12.40625 7.808594 12.332031 L 7.542969 12.066406 C 7.46875 11.996094 7.46875 11.875 7.542969 11.804688 L 9.929688 9.417969 C 10 9.34375 10.121094 9.34375 10.191406 9.417969 Z M 10.191406 9.417969 "
       id="path776" />
  </g>
</svg>

<svg xmlns="http://www.w3.org/2000/svg" width="24" height="24" viewBox="0 0 18 18">
 <g>
  <path d="m 15.75 9 c 0 3.211 -3.02 5.813 -6.75 5.813 c -3.727 0 -6.75 -2.602 -6.75 -5.813 c 0 -3.211 3.02 -5.813 6.75 -5.813 c 3.727 0 6.75 2.602 6.75 5.813 m 0 0" style="fill:#ffd95d;fill-opacity:1;stroke:none;fill-rule:nonzero"/>
  <path d="m 7.688 7.688 c 0 0.52 -0.418 0.938 -0.938 0.938 c -0.52 0 -0.938 -0.418 -0.938 -0.938 c 0 -0.52 0.418 -0.938 0.938 -0.938 c 0.52 0 0.938 0.418 0.938 0.938 m 0 0" style="fill:#646464;fill-opacity:1;stroke:none;fill-rule:nonzero"/>
  <path d="m 12.188 7.688 c 0 0.52 -0.418 0.938 -0.938 0.938 c -0.52 0 -0.938 -0.418 -0.938 -0.938 c 0 -0.52 0.418 -0.938 0.938 -0.938 c 0.52 0 0.938 0.418 0.938 0.938 m 0 0" style="fill:#646464;fill-opacity:1;stroke:none;fill-rule:nonzero"/>
  <path d="m 8.07 9.418 l 2.387 2.387 c 0.074 0.07 0.074 0.191 0 0.262 l -0.266 0.266 c -0.07 0.074 -0.191 0.074 -0.262 0 l -2.387 -2.387 c -0.074 -0.07 -0.074 -0.191 0 -0.262 l 0.266 -0.266 c 0.07 -0.074 0.191 -0.074 0.262 0 m 0 0" style="fill:#646464;fill-opacity:1;stroke:none;fill-rule:nonzero"/>
  <path d="m 10.191 9.418 l 0.266 0.266 c 0.074 0.07 0.074 0.191 0 0.262 l -2.387 2.387 c -0.07 0.074 -0.191 0.074 -0.262 0 l -0.266 -0.266 c -0.074 -0.07 -0.074 -0.191 0 -0.262 l 2.387 -2.387 c 0.07 -0.074 0.191 -0.074 0.262 0 m 0 0" style="fill:#646464;fill-opacity:1;stroke:none;fill-rule:nonzero"/>
 </g>
</svg>
